X:125.2
T:Untitled Jig
T:from James E Frill's Musick Book  p. 125 bottom
Z:Sarah Gowan
M:6/8
L:1/8
K:A
a|aed c2 B| ABc E2E| EAA A2 f|edc B2 a|
aed c2 B|ABc E2E|F2f edc|1 B3 A2 :|2 B3 A3||
c2 A e2A| f2e ecA| agf edc| BcA BGE|
c2 A e2A| f2e ecA| agf edc| B3A3:|
